X:1
T:[ID 1-119]
T:[ID 1-119]
T:Bezeichnung standardisiert: Menuett Men\"uet
T:Urheber unbekannt Datum in der hier transkribierten schriftlichen Quelle: vermutlich vor 1767
C:Urheber unbekannt
C:Datum in der hier transkribierten schriftlichen Quelle: vermutlich vor 1767
L:1/8
M:none
K:D
V:1 treble 
V:1
 dAFAdf | ecAceg | fagfed | c2 Bc A2 | dAFAdf | ecAceg | fagfef | d6 :: afdfaf | gecege | fagfed | %11
 c2 Bc A2 | afdfaf | gecege | fagfef | d6 :| %16

